packages/kaspersky-hexa-ui-icons/src/iconsSVGs/24/WeakConnection.svg

<svg width="24" height="24" viewBox="0 0 24 24" fill="none" xmlns="http://www.w3.org/2000/svg">
<path d="M6 3C6 2.44772 5.55229 2 5 2C4.44772 2 4 2.44772 4 3V5C4 5.55228 4.44772 6 5 6C5.55229 6 6 5.55228 6 5V3Z" fill="black"/>
<path d="M6 7.99193C6 7.43965 5.55228 6.99193 5 6.99193C4.44772 6.99193 4 7.43965 4 7.99193V9.4182C4 9.88373 4.0405 10.3406 4.1184 10.7853C4.2137 11.3293 4.73195 11.6931 5.27595 11.5978C5.81996 11.5025 6.1837 10.9842 6.0884 10.4402C6.03038 10.109 6 9.76754 6 9.4182V7.99193Z" fill="black"/>
<path d="M7.06158 12.7879C6.74442 12.3358 6.12077 12.2264 5.66864 12.5435C5.21651 12.8607 5.1071 13.4843 5.42427 13.9365C5.95128 14.6877 6.60609 15.3425 7.35736 15.8696C7.8095 16.1867 8.43314 16.0773 8.7503 15.6252C9.06747 15.173 8.95806 14.5494 8.50593 14.2322C7.9447 13.8385 7.45527 13.3491 7.06158 12.7879Z" fill="black"/>
<path d="M10.8536 15.2054C10.3096 15.1101 9.79136 15.4739 9.69606 16.0179C9.60076 16.5619 9.96451 17.0801 10.5085 17.1754C10.9532 17.2533 11.4101 17.2938 11.8756 17.2938H12.7112C13.2635 17.2938 13.7112 16.8461 13.7112 16.2938C13.7112 15.7415 13.2635 15.2938 12.7112 15.2938H11.8756C11.5263 15.2938 11.1849 15.2634 10.8536 15.2054Z" fill="black"/>
<path d="M15.6646 15.2938C15.1123 15.2938 14.6646 15.7415 14.6646 16.2938C14.6646 16.8461 15.1123 17.2938 15.6646 17.2938H17.4928L14.4937 20.2929C14.1032 20.6834 14.1032 21.3166 14.4937 21.7071C14.8843 22.0976 15.5174 22.0976 15.9079 21.7071L20.6142 17.0009C20.8017 16.8133 20.9071 16.559 20.9071 16.2938C20.9071 16.0286 20.8017 15.7742 20.6142 15.5867L15.9079 10.8804C15.5174 10.4899 14.8843 10.4899 14.4937 10.8804C14.1032 11.2709 14.1032 11.9041 14.4937 12.2946L17.4929 15.2938H15.6646Z" fill="black"/>
</svg>

<svg xmlns="http://www.w3.org/2000/svg" width="24" height="24" fill="none" viewBox="0 0 24 24"><path fill="#000" fill-rule="evenodd" d="M5 2c.5523 0 1 .4477 1 1v2c0 .5523-.4477 1-1 1s-1-.4477-1-1V3c0-.5523.4477-1 1-1m1 5.992c0-.5524-.4477-1-1-1s-1 .4476-1 1v1.4262c0 .4655.0405.9224.1184 1.3671.0953.544.6136.9078 1.1576.8125s.9077-.6136.8124-1.1576A5.9 5.9 0 0 1 6 9.4182zm9.6646 7.3018c-.5523 0-1 .4477-1 1s.4477 1 1 1h1.8282l-2.9991 2.9991c-.3905.3905-.3905 1.0237 0 1.4142s1.0237.3905 1.4142 0l4.7063-4.7062a1.0003 1.0003 0 0 0 0-1.4142l-4.7063-4.7063c-.3905-.3905-1.0236-.3905-1.4142 0s-.3905 1.0237 0 1.4142l2.9992 2.9992zm-9.996-2.7503c.4522-.3171 1.0758-.2077 1.393.2444a5.92 5.92 0 0 0 1.4443 1.4443c.4522.3172.5616.9408.2444 1.393-.3172.4521-.9408.5615-1.393.2444a7.92 7.92 0 0 1-1.933-1.9331c-.3172-.4522-.2078-1.0758.2443-1.393m5.185 2.6619c-.544-.0953-1.0622.2685-1.1575.8125s.2684 1.0622.8124 1.1575a7.9 7.9 0 0 0 1.3671.1184h.8356c.5523 0 1-.4477 1-1s-.4477-1-1-1h-.8356a5.9 5.9 0 0 1-1.022-.0884"/></svg>
